dhis-2/dhis-support/dhis-support-system/src/main/resources/SVGs/woman_outline.svg

<svg width="48" height="48" viewBox="0 0 48 48" fill="none" xmlns="http://www.w3.org/2000/svg">
<path fill-rule="evenodd" clip-rule="evenodd" d="M24.0016 4.02734C21.5767 4.02734 19.6087 5.99292 19.6087 8.41799C19.6087 10.843 21.5767 12.8089 24.0016 12.8089C26.4266 12.8089 28.3926 10.843 28.3926 8.41799C28.3926 5.99292 26.4266 4.02734 24.0016 4.02734ZM24.0016 4.72073C26.0436 4.72094 27.6986 6.37591 27.6986 8.41799C27.6986 10.46 26.0436 12.1149 24.0016 12.1149C21.9587 12.1159 20.3007 10.461 20.3007 8.41799C20.3007 6.37501 21.9587 4.71954 24.0016 4.72073ZM24.4276 13.8889L23.5636 13.8909L19.5657 13.8929V13.9039C18.8477 13.9189 18.1617 14.3129 17.8237 15.0059L12.9688 24.9488C12.4878 25.9328 12.8968 27.1128 13.8808 27.5937C14.8647 28.0737 16.0427 27.6697 16.5227 26.6858L19.5657 20.4488C19.6407 24.6968 19.3507 28.1077 16.7847 33.0757H19.5657V41.9956C19.5657 43.0906 20.4457 43.9745 21.5407 43.9745C22.6356 43.9745 23.5176 43.0906 23.5176 41.9956V33.0757H24.4706V41.9956C24.4706 43.0906 25.3536 43.9745 26.4486 43.9745C27.5446 43.9745 28.4256 43.0906 28.4256 41.9956V33.0757H31.2125C28.9166 28.2827 28.4256 25.1528 28.4256 20.4318L31.4765 26.6838C31.9565 27.6677 33.1365 28.0717 34.1205 27.5917C35.1045 27.1108 35.5095 25.9318 35.0285 24.9468L30.1755 15.0039C29.8356 14.3079 29.1476 13.9099 28.4256 13.8999V13.8889H24.4276ZM28.3546 14.6129V14.6269C28.8266 14.6399 29.2756 14.8939 29.4996 15.3479L30.5385 17.4509C30.5505 17.4729 30.5705 17.4849 30.5815 17.5079L34.4195 25.2828C34.7415 25.9348 34.4755 26.7188 33.8235 27.0408C33.1725 27.3628 32.3895 27.0968 32.0675 26.4448L31.0245 24.3378C31.0135 24.3188 30.9945 24.3038 30.9835 24.2808L27.7596 17.7479C28.0336 22.7418 26.9896 26.1728 30.0975 32.3957L27.7596 32.3767V33.2457V34.3177V36.9336V41.9136C27.7596 42.2766 27.6136 42.6066 27.3766 42.8436C27.1396 43.0796 26.8116 43.2236 26.4486 43.2246C26.0856 43.2246 25.7566 43.0806 25.5196 42.8436C25.2826 42.6066 25.1346 42.2766 25.1346 41.9136V36.9336V34.3177V33.2457V32.3767H22.8536V33.2457V34.3177V36.9336V41.9136C22.8536 42.6406 22.2676 43.2246 21.5407 43.2246C20.8137 43.2246 20.2297 42.6406 20.2297 41.9136V36.9336V34.3177V33.2457V32.3767H17.8727C20.8907 26.1978 19.9007 22.7368 20.2297 17.7029L16.9817 24.2788C16.9717 24.3018 16.9527 24.3168 16.9407 24.3358L15.8997 26.4428C15.5787 27.0948 14.7937 27.3608 14.1427 27.0388C13.4908 26.7168 13.2248 25.9328 13.5468 25.2808L17.3847 17.5059C17.3957 17.4839 17.4177 17.4739 17.4297 17.4509L18.4687 15.3459C18.7097 14.8569 19.2097 14.5849 19.7207 14.6149L28.3546 14.6129Z" fill="#333333"/>
</svg>

<?xml version="1.0" encoding="UTF-8" standalone="no"?>
<!-- Created with Inkscape (http://www.inkscape.org/) -->
<svg id="svg8" xmlns:rdf="http://www.w3.org/1999/02/22-rdf-syntax-ns#" xmlns="http://www.w3.org/2000/svg" xmlns:osb="http://www.openswatchbook.org/uri/2009/osb" height="48" width="48" version="1.1" xmlns:cc="http://creativecommons.org/ns#" viewBox="0 0 12.7 12.7" xmlns:dc="http://purl.org/dc/elements/1.1/">
 <title id="title4753">UIO-icon</title>
 <metadata id="metadata5">
  <rdf:RDF>
   <cc:Work rdf:about="">
    <dc:format>image/svg+xml</dc:format>
    <dc:type rdf:resource="http://purl.org/dc/dcmitype/StillImage"/>
    <dc:title>UIO-icon</dc:title>
    <dc:creator>
     <cc:Agent>
      <dc:title>Joaquín Urbano</dc:title>
     </cc:Agent>
    </dc:creator>
    <dc:rights>
     <cc:Agent>
      <dc:title>GPL</dc:title>
     </cc:Agent>
    </dc:rights>
   </cc:Work>
  </rdf:RDF>
 </metadata>
 <g id="layer1" transform="translate(0,-284.3)">
  <path id="path4965" d="m24.002 4.0273c-2.425 0-4.393 1.9656-4.393 4.3907 0 2.425 1.968 4.391 4.393 4.391s4.391-1.966 4.391-4.391c0-2.4251-1.966-4.3907-4.391-4.3907zm0 0.6934c2.042 0.0002 3.697 1.6552 3.697 3.6973 0 2.042-1.655 3.697-3.697 3.697-2.043 0.001-3.701-1.654-3.701-3.697s1.658-3.6985 3.701-3.6973zm0.426 9.1683l-0.864 0.002-3.998 0.002v0.011c-0.718 0.015-1.404 0.409-1.742 1.102l-4.855 9.943c-0.481 0.984-0.072 2.164 0.912 2.645 0.984 0.48 2.162 0.076 2.642-0.908l3.043-6.237c0.075 4.248-0.215 7.659-2.781 12.627h2.781v8.92c0 1.095 0.88 1.979 1.975 1.979s1.977-0.884 1.977-1.979v-8.92h0.953v8.92c0 1.095 0.883 1.979 1.978 1.979 1.096 0 1.977-0.884 1.977-1.979v-8.92h2.787c-2.296-4.793-2.787-7.923-2.787-12.644l3.051 6.252c0.48 0.984 1.66 1.388 2.644 0.908 0.984-0.481 1.389-1.66 0.908-2.645l-4.853-9.943c-0.34-0.696-1.028-1.094-1.75-1.104v-0.011h-3.998zm3.927 0.724v0.014c0.472 0.013 0.921 0.267 1.145 0.721l1.039 2.103c0.012 0.022 0.032 0.034 0.043 0.057l3.838 7.775c0.322 0.652 0.056 1.436-0.596 1.758-0.651 0.322-1.434 0.056-1.756-0.596l-1.043-2.107c-0.011-0.019-0.03-0.034-0.041-0.057l-3.224-6.533c0.274 4.994-0.77 8.425 2.338 14.648l-2.338-0.019v0.869 1.072 2.616 4.98c0 0.363-0.146 0.693-0.383 0.93-0.237 0.236-0.565 0.38-0.928 0.381-0.363 0-0.692-0.144-0.929-0.381s-0.385-0.567-0.385-0.93v-4.98-2.616-1.072-0.869h-2.281v0.869 1.072 2.616 4.98c0 0.727-0.586 1.311-1.313 1.311s-1.311-0.584-1.311-1.311v-4.98-2.616-1.072-0.869h-2.357c3.018-6.179 2.028-9.64 2.357-14.674l-3.248 6.576c-0.01 0.023-0.029 0.038-0.041 0.057l-1.041 2.107c-0.321 0.652-1.106 0.918-1.757 0.596-0.652-0.322-0.918-1.106-0.596-1.758l3.838-7.775c0.011-0.022 0.033-0.032 0.045-0.055l1.039-2.105c0.241-0.489 0.741-0.761 1.252-0.731l8.634-0.002z" fill-rule="evenodd" fill-opacity=".97772" transform="matrix(.26458 0 0 .26458 0 284.3)" fill="#333"/>
 </g>
</svg>
